launcher/android/assets/skins/day/svg/mapCITO1.svg

<svg enable-background="new 0 0 258.00 258.00" height="258" viewBox="0 0 258 258" width="258" xmlns="http://www.w3.org/2000/svg" xmlns:xlink="http://www.w3.org/1999/xlink"><linearGradient id="a"><stop offset="0" stop-color="#f3f8f8"/><stop offset="1" stop-color="#00eefc"/></linearGradient><radialGradient id="b" cx="92.6761" cy="150.552" gradientUnits="userSpaceOnUse" r="39.2039" xlink:href="#a"/><radialGradient id="c" cx="89.9447" cy="120.34" gradientUnits="userSpaceOnUse" r="9.56018" xlink:href="#a"/><g stroke-linejoin="round"><ellipse cx="128.22" cy="127.683" fill="#16376c" rx="96.8333" ry="97.6667" stroke-width=".2"/><path d="m131.72 31.1833c37.984 4.3219 55.251 23.1489 45.666 21.8333-34-4.6668-42.076 5.6091-42.667 6-28.416 18.8332-19.952 47.8454-5.666 66.3334 28.333 36.667 12 61.333 3.333 70-29.774 29.774-98.9996 2.333-97.4998-66.5 1.1751-53.9267 43.6911-103.7134 96.8338-97.6667z" fill="#339b2c" stroke-width=".2"/><ellipse cx="126.511" cy="128.267" fill="none" rx="96.8334" ry="97.6667" stroke="#16376c" stroke-width="5"/><g fill="#fff"><path d="m66.7272 188.677h17.1693l.7804-25.536 2.3413-8.992 4.6825-5.035 5.8531.719 6.2432 3.956 8.585 10.79 3.512 2.518 8.584.719h4.683l.39-6.833-12.877-11.869-8.975-5.755-7.8039-4.316 9.7549-11.15 5.073-9.711 1.951-4.676-7.804 2.878-8.194 8.991-5.8536 5.036-3.9021 1.798-7.8042-2.877-4.6826-1.079-2.7315 2.877v-4.316l-1.5608-3.237-11.3161-10.79-3.512-.36.3903 6.115 6.6335 7.912 3.512 1.799h-14.0478l4.2925 5.035 12.4867-1.079-6.6336 3.956-4.2923 2.518-.7805 3.237 3.9022.719 3.5119-1.798 4.2923-2.517 3.1217-.36 3.1217 4.316-3.5119 8.632-3.5119 5.395-3.1217 7.913-1.951 8.991z" stroke="url(#b)"/><path d="m89.7496 113.147-4.6826 1.079-2.3412 3.596-1.1706 5.755 2.3413 3.237 3.1217-.719 1.1706-2.518 2.8616.24.26 1.918 1.8211 1.679 3.1217-1.679.9105-3.597 1.1707-3.956-2.3414-3.956z" stroke="url(#c)"/><path d="m161.754 122.605c-5.432-.536-15.371.241-17.818-2.762-2.448-3.003 2.596-9.787 4.773-14.466s1.487-7.2533-2.587-3.513c-4.074 3.74-11.532 13.796-11.202 19.051.33 5.256 8.449 5.712 15.433 5.9 6.984.187 12.834.107 15.296-.858 2.463-.966 1.537-2.816-3.895-3.352z" stroke="#fff"/><path d="m138.285 99.4475c-1.615-.1586 1.022-1.7761 4.432-3.593 3.41-1.8166 7.593-3.8318 9.745-4.5314 2.151-.6994 2.271-.0827 3.456 3.6232s3.436 10.5007 2.899 11.3587c-.538.858-3.863-4.221-8.458-6.11-4.595-1.8891-10.46-.5887-12.074-.7475z" stroke="#fff"/><path d="m196.338 101.859c2.199 4.494 7.918 11.838 6.247 15.244-1.671 3.405-10.733 2.873-16.332 3.519s-7.736 2.47-2.093 3.769c5.642 1.3 19.065 2.074 23.967-.81 4.901-2.885 1.281-9.429-2.03-14.957-3.311-5.527-6.314-10.0381-8.475-11.471-2.162-1.4331-3.483.2117-1.284 4.706z" stroke="#fff"/><path d="m185.749 131.697c.654 1.335-2.223.093-5.68-1.652-3.456-1.744-7.491-3.991-9.241-5.316-1.75-1.324-1.215-1.725 1.765-4.5s8.405-7.923 9.501-7.935c1.096-.011-2.138 5.116-1.662 9.636.477 4.519 4.663 8.432 5.317 9.767z" stroke="#fff"/><path d="m160.217 85.3608c3.233-3.958 7.453-12.0793 11.572-12.4819 4.118-.4025 8.136 6.9135 11.558 10.947 3.422 4.0332 6.249 4.7837 4.681-.2562-1.569-5.0399-7.534-15.8701-12.765-18.2409-5.232-2.3711-9.73 3.7171-13.403 9.0569-3.673 5.3397-6.521 9.9314-6.822 12.3296-.3 2.3984 1.946 2.6035 5.179-1.3545z" stroke="#fff"/><path d="m194.276 78.68c.96-1.1767 1.201 1.6833 1.247 5.2447s-.102 7.8238-.504 9.8472c-.401 2.0237-1.056 1.8081-5.221.8774-4.165-.9308-11.841-2.5771-12.399-3.4242-.559-.847 6-.8947 10.119-3.5251 4.119-2.6305 5.798-7.8436 6.758-9.02z" stroke="#fff"/></g><path d="m207.505 33.5872h-5.6v15.96h-4.48v-15.96h-5.6v-3.64h15.68z" stroke-width=".2"/><path d="m232.425 49.5472h-4.48v-11.7294c0-1.2658.057-2.6643.171-4.1955h-.109c-.228 1.2046-.433 2.0708-.617 2.5987l-4.594 13.3262h-3.609l-4.677-13.1905c-.129-.3559-.334-1.2674-.617-2.7344h-.123c.117 1.9337.175 3.6296.175 5.088v10.8369h-3.92v-19.6h6.41l4.003 11.62c.321.9274.554 1.8609.7 2.8h.083c.245-1.085.505-2.0285.779-2.8306l4.003-11.5894h6.422z" stroke-width=".2"/></g></svg>

﻿<?xml version="1.0" encoding="utf-8"?>
<!DOCTYPE svg PUBLIC "-//W3C//DTD SVG 1.1//EN" "http://www.w3.org/Graphics/SVG/1.1/DTD/svg11.dtd">
<svg xmlns="http://www.w3.org/2000/svg" xmlns:xlink="http://www.w3.org/1999/xlink" version="1.1" baseProfile="full" width="258" height="258" viewBox="0 0 258.00 258.00" enable-background="new 0 0 258.00 258.00" xml:space="preserve">
	<g>
		<ellipse fill="#16376C" fill-opacity="1" stroke-width="0.2" stroke-linejoin="round" cx="128.22" cy="127.683" rx="96.8333" ry="97.6667"/>
		<path fill="#339B2C" fill-opacity="1" stroke-width="0.2" stroke-linejoin="round" d="M 131.72,31.1833C 169.704,35.5052 186.971,54.3322 177.386,53.0166C 143.386,48.3498 135.31,58.6257 134.719,59.0166C 106.303,77.8498 114.767,106.862 129.053,125.35C 157.386,162.017 141.053,186.683 132.386,195.35C 102.612,225.124 33.3864,197.683 34.8862,128.85C 36.0613,74.9233 78.5773,25.1366 131.72,31.1833 Z "/>
		<ellipse fill="none" stroke-width="5" stroke-linejoin="round" stroke="#16376C" stroke-opacity="1" cx="126.511" cy="128.267" rx="96.8334" ry="97.6667"/>
		<radialGradient id="SVGID_Stroke1_" cx="92.6761" cy="150.552" r="39.2039" gradientUnits="userSpaceOnUse">
			<stop offset="0" stop-color="#F3F8F8" stop-opacity="1"/>
			<stop offset="1" stop-color="#00EEFC" stop-opacity="1"/>
		</radialGradient>
		<path fill="#FFFFFF" fill-opacity="1" stroke-linejoin="round" stroke="url(#SVGID_Stroke1_)" d="M 66.7272,188.677L 83.8965,188.677L 84.6769,163.141L 87.0182,154.149L 91.7007,149.114L 97.5538,149.833L 103.797,153.789L 112.382,164.579L 115.894,167.097L 124.478,167.816L 129.161,167.816L 129.551,160.983L 116.674,149.114L 107.699,143.359L 99.8951,139.043L 109.65,127.893L 114.723,118.182L 116.674,113.506L 108.87,116.384L 100.676,125.375L 94.8224,130.411L 90.9203,132.209L 83.1161,129.332L 78.4335,128.253L 75.702,131.13L 75.702,126.814L 74.1412,123.577L 62.8251,112.787L 59.3131,112.427L 59.7034,118.542L 66.3369,126.454L 69.8489,128.253L 55.8011,128.253L 60.0936,133.288L 72.5803,132.209L 65.9467,136.165L 61.6544,138.683L 60.8739,141.92L 64.7761,142.639L 68.288,140.841L 72.5803,138.324L 75.702,137.964L 78.8237,142.28L 75.3118,150.912L 71.7999,156.307L 68.6782,164.22L 66.7272,173.211L 66.7272,188.677 Z "/>
		<radialGradient id="SVGID_Stroke2_" cx="89.9447" cy="120.34" r="9.56018" gradientUnits="userSpaceOnUse">
			<stop offset="0" stop-color="#F3F8F8" stop-opacity="1"/>
			<stop offset="1" stop-color="#00EEFC" stop-opacity="1"/>
		</radialGradient>
		<path fill="#FFFFFF" fill-opacity="1" stroke-linejoin="round" stroke="url(#SVGID_Stroke2_)" d="M 89.7496,113.147L 85.067,114.226L 82.7258,117.822L 81.5552,123.577L 83.8965,126.814L 87.0182,126.095L 88.1888,123.577L 91.0504,123.817L 91.3104,125.735L 93.1315,127.414L 96.2532,125.735L 97.1637,122.138L 98.3344,118.182L 95.993,114.226L 89.7496,113.147 Z "/>
		<g>
			<path fill="#FFFFFF" fill-opacity="1" stroke-linejoin="round" stroke="#FFFFFF" stroke-opacity="1" d="M 161.754,122.605C 156.322,122.069 146.383,122.846 143.936,119.843C 141.488,116.84 146.532,110.056 148.709,105.377C 150.886,100.698 150.196,98.1237 146.122,101.864C 142.048,105.604 134.59,115.66 134.92,120.915C 135.25,126.171 143.369,126.627 150.353,126.815C 157.337,127.002 163.187,126.922 165.649,125.957C 168.112,124.991 167.186,123.141 161.754,122.605 Z "/>
			<path fill="#FFFFFF" fill-opacity="1" stroke-linejoin="round" stroke="#FFFFFF" stroke-opacity="1" d="M 138.285,99.4475C 136.67,99.2889 139.307,97.6714 142.717,95.8545C 146.127,94.0379 150.31,92.0227 152.462,91.3231C 154.613,90.6237 154.733,91.2404 155.918,94.9463C 157.103,98.6522 159.354,105.447 158.817,106.305C 158.279,107.163 154.954,102.084 150.359,100.195C 145.764,98.3059 139.899,99.6063 138.285,99.4475 Z "/>
		</g>
		<g>
			<path fill="#FFFFFF" fill-opacity="1" stroke-linejoin="round" stroke="#FFFFFF" stroke-opacity="1" d="M 196.338,101.859C 198.537,106.353 204.256,113.697 202.585,117.103C 200.914,120.508 191.852,119.976 186.253,120.622C 180.654,121.268 178.517,123.092 184.16,124.391C 189.802,125.691 203.225,126.465 208.127,123.581C 213.028,120.696 209.408,114.152 206.097,108.624C 202.786,103.097 199.783,98.5859 197.622,97.153C 195.46,95.7199 194.139,97.3647 196.338,101.859 Z "/>
			<path fill="#FFFFFF" fill-opacity="1" stroke-linejoin="round" stroke="#FFFFFF" stroke-opacity="1" d="M 185.749,131.697C 186.403,133.032 183.526,131.79 180.069,130.045C 176.613,128.301 172.578,126.054 170.828,124.729C 169.078,123.405 169.613,123.004 172.593,120.229C 175.573,117.454 180.998,112.306 182.094,112.294C 183.19,112.283 179.956,117.41 180.432,121.93C 180.909,126.449 185.095,130.362 185.749,131.697 Z "/>
		</g>
		<g>
			<path fill="#FFFFFF" fill-opacity="1" stroke-linejoin="round" stroke="#FFFFFF" stroke-opacity="1" d="M 160.217,85.3608C 163.45,81.4028 167.67,73.2815 171.789,72.8789C 175.907,72.4764 179.925,79.7924 183.347,83.8259C 186.769,87.8591 189.596,88.6096 188.028,83.5697C 186.459,78.5298 180.494,67.6996 175.263,65.3288C 170.031,62.9577 165.533,69.0459 161.86,74.3857C 158.187,79.7254 155.339,84.3171 155.038,86.7153C 154.738,89.1137 156.984,89.3188 160.217,85.3608 Z "/>
			<path fill="#FFFFFF" fill-opacity="1" stroke-linejoin="round" stroke="#FFFFFF" stroke-opacity="1" d="M 194.276,78.68C 195.236,77.5033 195.477,80.3633 195.523,83.9247C 195.569,87.4861 195.421,91.7485 195.019,93.7719C 194.618,95.7956 193.963,95.58 189.798,94.6493C 185.633,93.7185 177.957,92.0722 177.399,91.2251C 176.84,90.3781 183.399,90.3304 187.518,87.7C 191.637,85.0695 193.316,79.8564 194.276,78.68 Z "/>
		</g>
		<g>
			<path fill="#000000" fill-opacity="1" stroke-width="0.2" stroke-linejoin="round" d="M 207.505,33.5872L 201.905,33.5872L 201.905,49.5472L 197.425,49.5472L 197.425,33.5872L 191.825,33.5872L 191.825,29.9472L 207.505,29.9472L 207.505,33.5872 Z "/>
			<path fill="#000000" fill-opacity="1" stroke-width="0.2" stroke-linejoin="round" d="M 232.425,49.5472L 227.945,49.5472L 227.945,37.8178C 227.945,36.552 228.002,35.1535 228.116,33.6223L 228.007,33.6223C 227.779,34.8269 227.574,35.6931 227.39,36.221L 222.796,49.5472L 219.187,49.5472L 214.51,36.3567C 214.381,36.0008 214.176,35.0893 213.893,33.6223L 213.77,33.6223C 213.887,35.556 213.945,37.2519 213.945,38.7103L 213.945,49.5472L 210.025,49.5472L 210.025,29.9472L 216.435,29.9472L 220.438,41.5672C 220.759,42.4946 220.992,43.4281 221.138,44.3672L 221.221,44.3672C 221.466,43.2822 221.726,42.3387 222,41.5366L 226.003,29.9472L 232.425,29.9472L 232.425,49.5472 Z "/>
		</g>
	</g>
</svg>
